packages/core/src/svgs/usdc.svg

<svg width="24" height="24" viewBox="0 0 24 24" fill="none" xmlns="http://www.w3.org/2000/svg">
<g clip-path="url(#clip0_31_20248)">
<path d="M0 0H24V24H0V0Z" fill="#2775CA"/>
<path d="M12 18.8574C15.8014 18.8574 18.8571 15.8016 18.8571 12.0002C18.8571 8.19878 15.8014 5.14307 12 5.14307C8.19854 5.14307 5.14282 8.19878 5.14282 12.0002C5.14282 15.8016 8.19854 18.8574 12 18.8574Z" fill="white"/>
<path d="M13.8857 13.0841C13.8857 12.0856 13.2857 11.7427 12.0857 11.6013C11.2286 11.4856 11.0572 11.2584 11.0572 10.8556C11.0572 10.457 11.3443 10.1999 11.9143 10.1999C12.4286 10.1999 12.7157 10.3713 12.8572 10.7999C12.8872 10.8856 12.9729 10.9413 13.0586 10.9413H13.5129C13.6286 10.9413 13.7143 10.8556 13.7143 10.7441V10.7141C13.5986 10.0841 13.0843 9.48415 12.4286 9.42843V8.79843C12.4286 8.68272 12.3429 8.597 12.2015 8.57129H11.8243C11.7086 8.57129 11.6015 8.657 11.5715 8.79843V9.42843C10.7143 9.54415 10.1443 10.1999 10.1443 10.9156C10.1443 11.8584 10.7143 12.227 11.9143 12.3727C12.7157 12.5141 12.9729 12.6856 12.9729 13.1441C12.9729 13.5984 12.57 13.9156 12.03 13.9156C11.2843 13.9156 11.0272 13.5984 10.9415 13.1699C10.9157 13.0584 10.83 12.9984 10.7443 12.9984H10.2557C10.1443 12.9984 10.0586 13.0841 10.0586 13.1999V13.2299C10.17 13.9413 10.6286 14.4299 11.5715 14.5713V15.2056C11.5715 15.3213 11.6572 15.3984 11.7986 15.4284H12.21C12.3215 15.4284 12.3986 15.3513 12.4286 15.2056V14.5713C13.2857 14.4299 13.8857 13.8556 13.8857 13.0841Z" fill="#2775CA"/>
<path d="M10.5428 16.084C10.0142 15.8929 9.52871 15.5989 9.11434 15.219C8.69998 14.8392 8.36498 14.381 8.12868 13.8709C7.89238 13.3609 7.75947 12.8091 7.73763 12.2474C7.71579 11.6857 7.80544 11.1252 8.00141 10.5983C8.42998 9.39833 9.37284 8.48547 10.5428 8.0569C10.6586 8.00119 10.7143 7.91547 10.7143 7.76976V7.37119C10.7143 7.25547 10.6586 7.16976 10.5428 7.14404C10.5128 7.14404 10.4571 7.14404 10.4271 7.16976C9.38711 7.50071 8.47934 8.15394 7.83515 9.03495C7.19096 9.91596 6.84375 10.9791 6.84375 12.0705C6.84375 13.1619 7.19096 14.225 7.83515 15.106C8.47934 15.987 9.38711 16.6402 10.4271 16.9712C10.5428 17.0269 10.6586 16.9712 10.6843 16.8555C10.7143 16.8298 10.7143 16.7998 10.7143 16.744V16.3412C10.7143 16.2555 10.6286 16.144 10.5428 16.084ZM13.5728 7.16976C13.4571 7.11404 13.3414 7.16976 13.3157 7.28547C13.2857 7.31547 13.2857 7.34119 13.2857 7.40119V7.79976C13.2857 7.91547 13.3714 8.0269 13.4571 8.0869C13.9857 8.27807 14.4713 8.57207 14.8856 8.95193C15.3 9.33178 15.635 9.78997 15.8713 10.3C16.1076 10.8101 16.2405 11.3619 16.2623 11.9236C16.2842 12.4853 16.1945 13.0458 15.9986 13.5726C15.57 14.7726 14.6271 15.6855 13.4571 16.114C13.3414 16.1698 13.2857 16.2555 13.2857 16.4012V16.7998C13.2857 16.9155 13.3414 17.0012 13.4571 17.0269C13.4871 17.0269 13.5428 17.0269 13.5728 17.0012C16.2857 16.144 17.7728 13.2555 16.9157 10.5426C16.6674 9.75482 16.2345 9.03773 15.653 8.45106C15.0716 7.86438 14.3584 7.42509 13.5728 7.16976Z" fill="#2775CA"/>
</g>
<defs>
<clipPath id="clip0_31_20248">
<rect width="24" height="24" fill="white"/>
</clipPath>
</defs>
</svg>

<svg xmlns="http://www.w3.org/2000/svg" width="24" height="24" fill="none" viewBox="0 0 24 24"><g clip-path="url(#a)"><path fill="#2775CA" d="M0 0h24v24H0z"/><path fill="#fff" d="M12 18.857A6.84 6.84 0 0 0 18.857 12 6.84 6.84 0 0 0 12 5.143 6.84 6.84 0 0 0 5.143 12 6.84 6.84 0 0 0 12 18.857"/><path fill="#2775CA" d="M13.886 13.084c0-.998-.6-1.341-1.8-1.483-.857-.115-1.029-.343-1.029-.745 0-.399.287-.656.857-.656.515 0 .802.171.943.6.03.086.116.141.202.141h.454a.195.195 0 0 0 .201-.197v-.03c-.115-.63-.63-1.23-1.285-1.286v-.63c0-.115-.086-.201-.228-.227h-.377c-.115 0-.223.086-.252.227v.63c-.858.116-1.428.772-1.428 1.488 0 .942.57 1.311 1.77 1.457.802.141 1.059.313 1.059.771 0 .454-.403.772-.943.772-.746 0-1.003-.318-1.088-.746-.026-.112-.112-.172-.198-.172h-.488a.195.195 0 0 0-.197.202v.03c.111.711.57 1.2 1.513 1.341v.635c0 .115.085.192.227.222h.411c.111 0 .189-.077.219-.222v-.635c.857-.141 1.457-.715 1.457-1.487"/><path fill="#2775CA" d="M10.543 16.084A4.254 4.254 0 0 1 8 10.598a4.23 4.23 0 0 1 2.542-2.541c.116-.056.171-.142.171-.287V7.37c0-.116-.055-.201-.171-.227-.03 0-.086 0-.116.026a5.143 5.143 0 0 0 0 9.801c.116.056.232 0 .257-.116.03-.025.03-.055.03-.111v-.403c0-.085-.085-.197-.171-.257m3.03-8.914c-.116-.056-.232 0-.257.115-.03.03-.03.056-.03.116V7.8c0 .115.085.227.171.287A4.255 4.255 0 0 1 16 13.573a4.23 4.23 0 0 1-2.542 2.541c-.116.056-.171.142-.171.287v.399c0 .116.055.201.171.227.03 0 .086 0 .116-.026a5.136 5.136 0 0 0 3.343-6.458 5.19 5.19 0 0 0-3.343-3.373"/></g><defs><clipPath id="a"><path fill="#fff" d="M0 0h24v24H0z"/></clipPath></defs></svg>
